brandFactory_export/1.Light/(2)Euro Moneda_1Light.svg

<?xml version="1.0" encoding="UTF-8"?>
<svg width="24px" height="24px" viewBox="0 0 24 24" version="1.1" xmlns="http://www.w3.org/2000/svg" xmlns:xlink="http://www.w3.org/1999/xlink">
    <title>1.Light/(2)Euro Moneda_1Light</title>
    <g id="Symbols" stroke="none" stroke-width="1" fill="none" fill-rule="evenodd">
        <g id="1.Light/(2)Euro-Moneda_1Light" fill="#5CB615" fill-rule="nonzero">
            <path d="M11.8084034,22.6386555 C18.994958,22.6386555 22.6352941,18.9983193 22.6352941,11.8151261 C22.6352941,4.62857143 18.994958,0.988235294 11.8084034,0.988235294 C4.62521008,0.988235294 0.98487395,4.63193277 0.98487395,11.8151261 C0.98487395,18.9983193 4.62857143,22.6386555 11.8084034,22.6386555 Z M11.8084034,0 C19.5394958,0 23.6235294,4.08739496 23.6235294,11.8151261 C23.6235294,19.5394958 19.5394958,23.6235294 11.8084034,23.6235294 C4.08403361,23.6235294 0,19.5394958 0,11.8151261 C0,4.08739496 4.08403361,0 11.8084034,0 Z M16.594958,17.3109244 C16.8470588,17.2067227 17.1361345,17.3277311 17.2369748,17.5798319 C17.3344538,17.8151261 17.2369748,18.0806723 17.0151261,18.2016807 C15.9966387,18.6823529 14.7462185,18.9277311 13.3008403,18.9277311 C9.46218487,18.9277311 7.11932773,17.2470588 6.41344538,14.0504202 L4.85042017,14.0504202 C4.57815126,14.0504202 4.35630252,13.8285714 4.35630252,13.5563025 C4.35630252,13.2840336 4.57815126,13.0621849 4.85042017,13.0621849 L6.25882353,13.0621849 C6.21176471,12.6453782 6.18823529,12.2285714 6.18487395,11.8084034 C6.18487395,11.5731092 6.19495798,11.3445378 6.20840336,11.1226891 L4.85042017,11.1226891 C4.57815126,11.1226891 4.35630252,10.9008403 4.35630252,10.6285714 C4.35630252,10.3563025 4.57815126,10.1344538 4.85042017,10.1344538 L6.31260504,10.1344538 C6.87394958,6.60504202 9.30756303,4.68571429 13.3008403,4.68571429 C14.7260504,4.68571429 15.9630252,4.92436975 16.9781513,5.39495798 C17.2201681,5.52268908 17.3109244,5.82184874 17.1798319,6.06386555 C17.0621849,6.28571429 16.7966387,6.38319328 16.5647059,6.28907563 C15.6806723,5.8789916 14.5815126,5.67058824 13.3008403,5.67058824 C9.83865546,5.67058824 7.84537815,7.17983193 7.32436975,10.1310924 L12.1176471,10.1310924 C12.389916,10.1310924 12.6117647,10.3529412 12.6117647,10.6252101 C12.6117647,10.897479 12.389916,11.1193277 12.1176471,11.1193277 L7.21344538,11.1193277 C7.2,11.3478992 7.16638655,11.5630252 7.16638655,11.805042 C7.16638655,12.2487395 7.20336134,12.6621849 7.25042017,13.0588235 L12.1109244,13.0588235 C12.3831933,13.0588235 12.605042,13.2806723 12.605042,13.5529412 C12.605042,13.8252101 12.3831933,14.0470588 12.1109244,14.0470588 L7.45210084,14.0470588 C8.12436975,16.6184874 10.0705882,17.9394958 13.297479,17.9394958 C14.5983193,17.9428571 15.7042017,17.7310924 16.594958,17.3109244 L16.594958,17.3109244 Z" id="(2)Euro-Moneda_1Light"></path>
        </g>
    </g>
</svg>

<svg width="24" height="24" viewBox="0 0 24 24" xmlns="http://www.w3.org/2000/svg"><path d="M11.808 22.639c7.187 0 10.827-3.64 10.827-10.824 0-7.186-3.64-10.827-10.827-10.827C4.625.988.985 4.632.985 11.815S4.629 22.64 11.808 22.64zm0-22.639c7.731 0 11.816 4.087 11.816 11.815 0 7.724-4.085 11.809-11.816 11.809C4.084 23.624 0 19.539 0 11.815 0 4.087 4.084 0 11.808 0zm4.787 17.31a.49.49 0 01.642.27c.097.235 0 .5-.222.622-1.018.48-2.269.726-3.714.726-3.839 0-6.182-1.68-6.888-4.878H4.85a.495.495 0 010-.988H6.26c-.047-.417-.07-.833-.074-1.254 0-.235.01-.463.023-.685H4.85a.495.495 0 010-.989h1.463c.56-3.529 2.995-5.448 6.988-5.448 1.425 0 2.662.238 3.677.709a.49.49 0 01.202.669.489.489 0 01-.615.225c-.884-.41-1.983-.618-3.264-.618-3.462 0-5.456 1.509-5.977 4.46h4.794a.495.495 0 010 .988H7.213c-.013.229-.047.444-.047.686 0 .444.037.857.084 1.254h4.86a.495.495 0 010 .988H7.453c.672 2.571 2.619 3.892 5.845 3.892 1.301.004 2.407-.208 3.298-.628z" fill="#5CB615" fill-rule="nonzero"/></svg>
